X: 14414
T: Galway Jig
R: slip jig
M: 9/8
K: Dmajor
|:d2AF2AF2A|d2AF2A GFE|d2AF2AF2A|ABA GFE D3:|
A3B3c3|Bdc BA^GA3|d3e3f3|dgf edcd3:|

